logos/microsoft/xbox.svg

<?xml version="1.0" encoding="UTF-8" standalone="no"?>
<!-- Generator: Adobe Illustrator 19.2.1, SVG Export Plug-In . SVG Version: 6.00 Build 0)  -->

<svg
   xmlns:dc="http://purl.org/dc/elements/1.1/"
   xmlns:cc="http://creativecommons.org/ns#"
   xmlns:rdf="http://www.w3.org/1999/02/22-rdf-syntax-ns#"
   xmlns:svg="http://www.w3.org/2000/svg"
   xmlns="http://www.w3.org/2000/svg"
   xmlns:sodipodi="http://sodipodi.sourceforge.net/DTD/sodipodi-0.dtd"
   xmlns:inkscape="http://www.inkscape.org/namespaces/inkscape"
   version="1.1"
   id="svg2985"
   inkscape:version="0.92.3 (2405546, 2018-03-11)"
   sodipodi:docname="xbox.svg"
   x="0px"
   y="0px"
   viewBox="0 0 687.6 209"
   style="enable-background:new 0 0 687.6 209;"
   xml:space="preserve"><metadata
   id="metadata4757"><rdf:RDF><cc:Work
       rdf:about=""><dc:format>image/svg+xml</dc:format><dc:type
         rdf:resource="http://purl.org/dc/dcmitype/StillImage" /></cc:Work></rdf:RDF></metadata><defs
   id="defs4755">
	
</defs>
<style
   type="text/css"
   id="style4744">
	.st0{fill:#107C10;}
</style>
<title
   id="title3507">XBOX</title>
<sodipodi:namedview
   bordercolor="#666666"
   borderopacity="1"
   fit-margin-bottom="0"
   fit-margin-left="0"
   fit-margin-right="0"
   fit-margin-top="0"
   gridtolerance="10"
   guidetolerance="10"
   id="namedview2987"
   inkscape:current-layer="svg2985"
   inkscape:cx="91.729905"
   inkscape:cy="-156.97639"
   inkscape:pageopacity="0"
   inkscape:pageshadow="2"
   inkscape:window-height="1046"
   inkscape:window-maximized="1"
   inkscape:window-width="1920"
   inkscape:window-x="0"
   inkscape:window-y="34"
   inkscape:zoom="0.75869287"
   objecttolerance="10"
   pagecolor="#ffffff"
   showgrid="false">
	</sodipodi:namedview>
<path
   d="M 103.94531 0.46289062 C 96.484942 0.47155538 89.003552 1.0255089 83.804688 2.1230469 C 74.562261 4.0639563 67.746285 6.3287877 59.589844 10.1875 C 49.769767 14.831819 49.492127 15.13241 55.615234 14.832031 C 58.45728 14.693395 62.871437 14.947704 65.482422 15.386719 C 72.899469 16.680658 86.32417 21.417151 95.035156 25.853516 C 99.402202 28.071698 103.23639 29.944024 103.51367 29.990234 C 103.81405 30.059552 107.88174 28.232813 112.57227 25.945312 C 128.12265 18.366524 142.58783 14.347136 152.52344 14.855469 L 157.51367 15.109375 L 155.3418 13.769531 C 148.01718 9.2638492 135.00759 4.4118375 123.96289 2.078125 C 118.8449 0.99213995 111.40568 0.45422587 103.94531 0.46289062 z M 174.68164 29.412109 C 171.63164 29.412109 164.56156 32.138162 159.59375 35.234375 C 153.3089 39.1393 147.48516 43.76109 139.09766 51.478516 L 132.67383 57.392578 L 138.61328 64.857422 C 157.46783 88.58735 178.00776 123.52304 184.13086 142.28516 C 186.97291 150.94994 188.17587 159.54546 187.22852 164.21289 C 186.51223 167.79433 186.51075 167.79321 187.80469 166.17578 C 190.34636 162.94093 196.12332 153.02831 198.45703 147.92188 C 201.55325 141.08249 204.74224 131.03155 206.24414 123.29102 C 208.06952 113.86374 207.90704 93.600439 205.91992 84.126953 C 202.84682 69.477709 196.77002 55.382448 188.49805 43.783203 C 183.16055 36.273733 176.55323 29.412109 174.68164 29.412109 z M 34.054688 29.503906 C 31.909028 29.497137 30.505919 30.825047 27.242188 34.21875 C 14.995973 46.973297 4.828374 67.674832 1.9863281 85.582031 C -0.30117218 99.954003 -0.57857492 103.95198 0.20703125 110.95312 C 2.5869558 132.14138 7.4865284 146.81305 17.167969 161.69336 C 21.142208 167.79336 22.227237 168.9494 21.048828 165.83008 C 19.292767 161.20887 20.933664 150.07172 25.023438 139.00391 C 32.532908 118.62436 52.472617 85.674387 71.396484 62.429688 L 75.464844 57.416016 L 68 50.669922 C 55.222347 39.093783 46.996722 33.409814 39.279297 30.798828 C 36.896484 29.993004 35.342083 29.507968 34.054688 29.503906 z M 531.09961 44 C 496.29961 44 472.09961 70.200781 472.09961 107.80078 C 472.09961 145.40078 496.29961 171.59961 531.09961 171.59961 C 565.69961 171.59961 589.90039 145.40078 589.90039 107.80078 C 589.90039 70.200781 565.69961 44 531.09961 44 z M 257.80078 46.800781 L 301.19922 105 L 253.69922 169 L 270 169 L 309.40039 116 L 348.69922 169 L 365 169 L 365 168.90039 L 317.59961 104.90039 L 360.90039 46.800781 L 344.69922 46.800781 L 309.40039 94.199219 L 274.09961 46.800781 L 257.80078 46.800781 z M 371.69922 46.800781 L 371.69922 99.5 L 355 99.5 C 352.8 102.3 347.9 108.99922 346 111.69922 L 371.69922 111.69922 L 371.69922 168.90039 L 421.80078 168.90039 C 449.00078 168.90039 465.90039 155.19922 465.90039 133.19922 C 466.00039 123.59922 462.29922 115.4 455.19922 109.5 C 452.59922 107.3 449.89961 105.60039 447.09961 104.40039 C 455.99961 99.600391 461.90039 90.5 461.90039 80 C 461.90039 72.2 459.00078 46.800781 421.80078 46.800781 L 371.69922 46.800781 z M 581.40039 46.800781 L 624.69922 105 L 577.30078 169 L 593.59961 169 L 632.90039 116 L 672.30078 169 L 688.59961 169 L 688.59961 168.90039 L 641.09961 104.90039 L 684.5 46.800781 L 668.19922 46.800781 L 632.90039 94.199219 L 597.59961 46.800781 L 581.40039 46.800781 z M 531.09961 56.900391 C 557.49961 56.900391 575.90039 77.800781 575.90039 107.80078 C 575.90039 137.70078 557.49961 158.69922 531.09961 158.69922 C 504.59961 158.69922 486.09961 137.80078 486.09961 107.80078 C 486.09961 77.800781 504.59961 56.900391 531.09961 56.900391 z M 385.59961 59.5 L 421.90039 59.5 C 431.70039 59.5 448.19922 61.900391 448.19922 78.900391 C 448.19922 91.700391 438.60039 99.400391 421.90039 99.400391 L 385.59961 99.400391 L 385.59961 59.5 z M 104.32422 84.658203 C 102.31399 84.219187 83.667142 100.90143 70.265625 115.13477 C 46.697439 140.18174 32.902344 162.17996 32.902344 174.72656 C 32.902344 180.9883 35.536515 184.10742 47.205078 191.73242 C 61.138034 200.83621 77.334823 206.58828 93.324219 208.11328 C 106.70263 209.40722 122.97062 207.74444 135.35547 203.81641 C 150.37441 199.07967 170.82278 186.71778 174.12695 180.38672 C 178.47089 172.06854 169.92102 153.3991 151.34375 130.57031 C 139.60587 116.17523 108.25225 85.536233 104.32422 84.658203 z M 385.59961 111.69922 L 421.90039 111.69922 C 435.70039 111.69922 452.09961 115.40039 452.09961 132.90039 C 452.09961 153.10039 433.10039 156.09961 421.90039 156.09961 L 385.59961 156.09961 L 385.59961 111.69922 z "
   id="path6965"
   style="fill:#ffffff;fill-opacity:1" />




</svg>

<?xml version="1.0" encoding="utf-8"?>
<!-- Generator: Adobe Illustrator 19.2.1, SVG Export Plug-In . SVG Version: 6.00 Build 0)  -->
<svg version="1.1"
	 id="svg2985" inkscape:version="0.48.4 r9939" sodipodi:docname="Xbox_logo_2012.png" xmlns:cc="http://creativecommons.org/ns#" xmlns:dc="http://purl.org/dc/elements/1.1/" xmlns:inkscape="http://www.inkscape.org/namespaces/inkscape" xmlns:rdf="http://www.w3.org/1999/02/22-rdf-syntax-ns#" xmlns:sodipodi="http://sodipodi.sourceforge.net/DTD/sodipodi-0.dtd" xmlns:svg="http://www.w3.org/2000/svg"
	 xmlns="http://www.w3.org/2000/svg" xmlns:xlink="http://www.w3.org/1999/xlink" x="0px" y="0px" viewBox="0 0 687.6 209"
	 style="enable-background:new 0 0 687.6 209;" xml:space="preserve">
<style type="text/css">
	.st0{fill:#107C10;}
</style>
<title  id="title3507">XBOX</title>
<sodipodi:namedview  bordercolor="#666666" borderopacity="1" fit-margin-bottom="0" fit-margin-left="0" fit-margin-right="0" fit-margin-top="0" gridtolerance="10" guidetolerance="10" id="namedview2987" inkscape:current-layer="svg2985" inkscape:cx="127.24783" inkscape:cy="42.200952" inkscape:pageopacity="0" inkscape:pageshadow="2" inkscape:window-height="705" inkscape:window-maximized="1" inkscape:window-width="1366" inkscape:window-x="-8" inkscape:window-y="-8" inkscape:zoom="4.2918149" objecttolerance="10" pagecolor="#ffffff" showgrid="false">
	</sodipodi:namedview>
<path id="path6965" inkscape:connector-curvature="0" class="st0" d="M688.6,168.9l-47.5-64l43.4-58.1h-16.3l-35.3,47.4l-35.3-47.4
	h-16.2l43.3,58.2l-47.4,64h16.3l39.3-53l39.4,53H688.6"/>
<path id="path6967" inkscape:connector-curvature="0" class="st0" d="M365,168.9l-47.4-64l43.3-58.1h-16.2l-35.3,47.4l-35.3-47.4
	h-16.3l43.4,58.2l-47.5,64h16.3l39.4-53l39.3,53H365"/>
<path id="path6969" inkscape:connector-curvature="0" class="st0" d="M421.9,156.1c0,0-30.6,0-36.3,0v-44.4c5.6,0,36.3,0,36.3,0
	c13.8,0,30.2,3.7,30.2,21.2C452.1,153.1,433.1,156.1,421.9,156.1z M385.6,59.5c5.6,0,36.3,0,36.3,0c9.8,0,26.3,2.4,26.3,19.4
	c0,12.8-9.6,20.5-26.3,20.5c0,0-30.6,0-36.3,0C385.6,99.4,385.6,59.5,385.6,59.5z M455.2,109.5c-2.6-2.2-5.3-3.9-8.1-5.1
	c8.9-4.8,14.8-13.9,14.8-24.4c0-7.8-2.9-33.2-40.1-33.2h-50.1v52.7c0,0-16.2,0-16.7,0c-2.2,2.8-7.1,9.5-9,12.2c1.8,0,25.7,0,25.7,0
	v57.2h50.1c27.2,0,44.1-13.7,44.1-35.7C466,123.6,462.3,115.4,455.2,109.5"/>
<path id="path6971" inkscape:connector-curvature="0" class="st0" d="M531.1,158.7c-26.5,0-45-20.9-45-50.9c0-30,18.5-50.9,45-50.9
	c26.4,0,44.8,20.9,44.8,50.9C575.9,137.7,557.5,158.7,531.1,158.7z M531.1,44c-34.8,0-59,26.2-59,63.8c0,37.6,24.2,63.8,59,63.8
	c34.6,0,58.8-26.2,58.8-63.8C589.9,70.2,565.7,44,531.1,44"/>
<g id="g4146" transform="matrix(0.23106064,0,0,0.23106064,-1.2020454,3.6254332)">
	<path id="path4148" inkscape:connector-curvature="0" class="st0" d="M409.1,885c-69.2-6.6-139.3-31.5-199.6-70.9
		c-50.5-33-61.9-46.5-61.9-73.6c0-54.3,59.7-149.5,161.7-257.9c58-61.6,138.7-133.8,147.4-131.9c17,3.8,152.7,136.4,203.5,198.7
		C740.6,648.2,777.6,729,758.8,765C744.5,792.4,656,845.9,591,866.4C537.4,883.4,467,890.6,409.1,885z M79.5,684.1
		C37.6,619.7,16.4,556.2,6.1,464.5c-3.4-30.3-2.2-47.6,7.7-109.8c12.3-77.5,56.3-167.1,109.3-222.3c22.6-23.5,24.6-24.1,52.1-14.8
		c33.4,11.3,69,35.9,124.3,86l32.3,29.2l-17.6,21.7C232.3,355.1,146,497.7,113.5,585.9C95.8,633.8,88.7,682,96.3,702
		C101.4,715.5,96.7,710.5,79.5,684.1z M815.5,695c4.1-20.2-1.1-57.4-13.4-94.9C775.6,518.9,686.7,367.7,605.1,265l-25.7-32.3
		l27.8-25.6c36.3-33.4,61.5-53.4,88.7-70.3c21.5-13.4,52.1-25.2,65.3-25.2c8.1,0,36.7,29.7,59.8,62.2
		c35.8,50.2,62.1,111.2,75.4,174.6c8.6,41,9.3,128.7,1.4,169.5c-6.5,33.5-20.3,77-33.7,106.6c-10.1,22.1-35.1,65-46.1,79
		C812.4,710.5,812.4,710.5,815.5,695L815.5,695z M416.5,96.2C378.8,77,320.7,56.5,288.6,50.9c-11.3-1.9-30.4-3-42.7-2.4
		c-26.5,1.3-25.3,0,17.2-20.1c35.3-16.7,64.8-26.5,104.8-34.9c45-9.5,129.5-9.6,173.8-0.2c47.8,10.1,104.1,31.1,135.8,50.6l9.4,5.8
		l-21.6-1.1c-43-2.2-105.6,15.2-172.9,48c-20.3,9.9-37.9,17.8-39.2,17.5C452,113.9,435.4,105.8,416.5,96.2z"/>
</g>
</svg>
